X:1
T:Polka
T:Pascual Roch (1864 - 1921)
T:"A Modern Method for the Guitar" Vol.I, p.141
%%score ( 1 2 )
L:1/8
Q:1/4=72
M:2/4
K:A
V:1 treble-8 nm="Guitare classique"
V:2 treble-8 
V:1
 !2!a/!4!f/!1!g/!2!e/ | !4!f[Acf]/!1!e/ !4!f[Acf]/e/ | !4!f[Ac] a/f/g/e/ | f[Acf]/e/ f[Acf]/!1!a/ | %4
 !3!g[Bd] !4!d'/!1!b/!3!c'/!4!a/ |"^₵7" b[dgb]/b/"^C7" !4!a[Bda]/f/ | !4!g[Bd] !0!B/!2!c/!3!d/e/ | %7
 !2!f/!1!^e/!1!f/!4!a/ !3!g[Bdf] | !4!f[Ace] a/f/g/e/ | f[Acf]/e/ f[Acf]/e/ | f[Ac] c/e/a/!1!c'/ | %11
 !4!e'2 !1!g/!4!b/!2!a/!1!g/ | !4!f!0!!3![Bd] d'/b/c'/a/ |"^₵7" b[dgb]/b/"^C7" a[Bda]/f/ | %14
 g[Bd] B/!2!c/!3!d/e/ | !2!f/e/!4!^d/e/ !1!^e/!1!f/!2!^^f/!3!g/ |"^₵2" !4!a2 [Aca]2 || %17
[K:D] f/^e/f/g/ f=e |"^C2" !4!e[Fd] [FA] z | !4!b/!2!a/!2!g/!1!f/ !4!a/!2!g/!1!f/!2!g/ | %20
 !0!e[EG] [EG] z | !3!c'/!1!b/c'/!4!d'/ c'[egb] | b[eg] [ce] z | %23
 A,/!3!e/!2!g/!4!c'/ !4!e'/!2!d'/!1!c'/!4!b/ | !4!b[df] !1![dfa] z | f/^e/f/g/ f=e | %26
"^C2" e[Fd] [FA] z | !4!b/!2!a/!1!^g/!2!a/ !2!d'/!1!c'/!4!e'/!2!d'/ | !1!c'[gb] [gb] z | %29
 !4!a/!2!g/!1!f/g/ g[ce] | e[Gc] [EG] z | B/!2!A/!1!^G/!1!A/ [=GB]/!1!A/B/!1!c/ | [Fd]2 z2 |] %33
V:2
 x2 | A,2 E,2 | A,2 x2 | A,2 A,2 | E,2 x2 | E,2 B,2 | E,2 x2 | E,2 E,2 | A,2 x2 | A,2 E,2 | %10
 A,2 x2 | E,2 x2 | !0!D2 x2 | E,2 B,2 | E,2 x2 | A,2 x2 | A,2 x2 ||[K:D] D2 A,2 | F,2 x2 | D2 A,2 | %20
 !3!C2 x2 | A,2 A,2 | E,2 x2 | A,2 A,2 | D2 x2 | D2 A,2 | F,2 x2 | A,2 A,2 | !0!G2 x2 | A,2 A,2 | %30
 !4!C2 x2 | A,2 !3!C2 | D2 x2 |] %33

